!!!COM:	Pierre de la Rue
**kern	**kern
*part2	*part1
*staff2	*staff1
*clefF4	*clefGv2
*k[b-]	*k[b-]
*M2/1	*M2/1
=1-	=1-
0D	1A
.	4B-
.	4A
.	4B-
.	4c
=2	=2
1D	1d
4E	1c
4D	.
4E	.
4F	.
=3	=3
1G	1B-
1F	2r
.	2A
=4	=4
1E	4B-
.	4A
.	4B-
.	4c
2r	1d
2D	.
=5	=5
4E	2c
4D	.
4E	2A
4F	.
1G	1B-
=6	=6
2F	1A
2D	.
1E	2r
.	2G
=7	=7
1D	4A
.	4G
.	4A
.	4B-
2r	1c
2C	.
=8	=8
4D	1B-
4C	.
4D	.
4E	.
1F	2A
.	[2c
=9	=9
1E	4c]
.	4B-
.	2G
2D	1F
[2F	.
=10	=10
4F]	1c
4E	.
2C	.
1BB-	1d
=11	=11
0F	2c
.	1A
.	2c
=12	=12
1G	1B-
2F	1A
[2D	.
=13	=13
2D]	1d
2F	.
2E	2c
[2D	[2B-
=14	=14
4D]	4B-]
4AA	4A
2C	1A
1BB-	.
.	2G
=15	=15
2AA	1A
2D	.
2C	2r
2AA	2A
=16	=16
2r	2B-
2AA	2c
2D	1A
2C	.
=17	=17
2AA	2r
2C	2A
2BB-	2B-
2AA	2c
=18	=18
2r	2A
2AA	2c
2BB-	2B-
2C	[2A
=19	=19
1AA	4A]
.	4G
.	2E
2r	2F
2D	2D
=20	=20
2E	2r
2F	2A
2D	2B-
2E	2c
=21	=21
2F	2A
2G	1d
1E	.
.	2c
=22	=22
0D	0d
==	==
*-	*-
